static/images/adam_ferreira_logo.svg

<svg width="898" height="512" fill="none" xmlns="http://www.w3.org/2000/svg">
    <path d="m577.594 112.313 1.568.775 53.229 27.916-19.706 86.408h154.712l-24.931 103.167H525.745l-1.532 1.036-.766 1.381v1.313l.348 1.105.905 1.105 54.747 28.19-32.315 144.36H421.816l119.644-506h350.213l-24.93 103.166H578.778l-1.184.622-.905 1.105-.418 1.519.418 1.589.905 1.243Z" fill="#FFFCE1" stroke="#FFFCE1" stroke-width="5"/>
    <path fill-rule="evenodd" clip-rule="evenodd" d="M402.316 3.069H234.453l-229.708 506h132.524L163.774 448h93.368l26.614-32.403-13.963 93.472h132.523v-506ZM287.394 133.863 207.88 334.518h79.514V133.863Z" fill="#FFFCE1" stroke="#FFFCE1" stroke-width="5"/>
</svg>

<svg width="898" height="512" viewBox="0 0 898 512" fill="none" xmlns="http://www.w3.org/2000/svg">
<path d="M577.594 112.313L579.162 113.088L632.391 141.004L612.685 227.412H767.397L742.466 330.579H525.745L524.213 331.615L523.447 332.996V334.309L523.795 335.414L524.7 336.519L579.447 364.709L547.132 509.069H421.816L541.46 3.06851H891.673L866.743 106.235H578.778L577.594 106.857L576.689 107.962L576.271 109.481L576.689 111.07L577.594 112.313Z" fill="#FFFCE1" stroke="#FFFCE1" stroke-width="5"/>
<path fill-rule="evenodd" clip-rule="evenodd" d="M402.316 3.06851H234.453L4.745 509.069H137.269L163.774 448H257.142L283.756 415.597L269.793 509.069H402.316V3.06851ZM287.394 133.863L207.88 334.518H287.394V133.863Z" fill="#FFFCE1" stroke="#FFFCE1" stroke-width="5"/>
</svg>
